icons/modern/five-oclock.svg

<svg width="32" height="32" viewBox="0 0 32 32" fill="none" xmlns="http://www.w3.org/2000/svg">
<path d="M30.163 15.9888C30.163 23.7208 23.895 29.9888 16.163 29.9888C8.43101 29.9888 2.16299 23.7208 2.16299 15.9888C2.16299 8.25684 8.43101 1.98883 16.163 1.98883C23.895 1.98883 30.163 8.25684 30.163 15.9888Z" fill="url(#paint0_radial_18_13549)"/>
<g filter="url(#filter0_f_18_13549)">
<path d="M15.1918 8.0047C15.7441 8.0047 16.1918 8.45242 16.1918 9.0047V15.2791C16.7845 15.6234 17.183 16.2652 17.183 17C17.183 17.3601 17.0873 17.6978 16.9199 17.9892L19.0438 21.6678C19.3199 22.1461 19.1561 22.7577 18.6778 23.0338C18.1995 23.31 17.5879 23.1461 17.3117 22.6678L15.1877 18.9888C14.0923 18.9853 13.2054 18.0962 13.2054 17C13.2054 16.2671 13.6017 15.6269 14.1918 15.2819V9.0047C14.1918 8.45242 14.6395 8.0047 15.1918 8.0047Z" fill="#C3C0C7"/>
</g>
<g filter="url(#filter1_i_18_13549)">
<path fill-rule="evenodd" clip-rule="evenodd" d="M16.1918 7.0047C16.7441 7.0047 17.1918 7.45241 17.1918 8.0047V16.0001C17.1918 16.5524 16.7441 17.0001 16.1918 17.0001C15.6395 17.0001 15.1918 16.5524 15.1918 16.0001V8.0047C15.1918 7.45241 15.6395 7.0047 16.1918 7.0047Z" fill="url(#paint1_linear_18_13549)"/>
</g>
<path fill-rule="evenodd" clip-rule="evenodd" d="M19.6778 22.0338C19.1995 22.31 18.5879 22.1461 18.3117 21.6678L15.3282 16.5001C15.052 16.0218 15.2159 15.4102 15.6942 15.134C16.1725 14.8579 16.7841 15.0218 17.0602 15.5001L20.0438 20.6678C20.3199 21.1461 20.1561 21.7577 19.6778 22.0338Z" fill="url(#paint2_linear_18_13549)"/>
<path fill-rule="evenodd" clip-rule="evenodd" d="M19.6778 22.0338C19.1995 22.31 18.5879 22.1461 18.3117 21.6678L15.3282 16.5001C15.052 16.0218 15.2159 15.4102 15.6942 15.134C16.1725 14.8579 16.7841 15.0218 17.0602 15.5001L20.0438 20.6678C20.3199 21.1461 20.1561 21.7577 19.6778 22.0338Z" fill="url(#paint3_linear_18_13549)"/>
<path fill-rule="evenodd" clip-rule="evenodd" d="M19.6778 22.0338C19.1995 22.31 18.5879 22.1461 18.3117 21.6678L15.3282 16.5001C15.052 16.0218 15.2159 15.4102 15.6942 15.134C16.1725 14.8579 16.7841 15.0218 17.0602 15.5001L20.0438 20.6678C20.3199 21.1461 20.1561 21.7577 19.6778 22.0338Z" fill="url(#paint4_radial_18_13549)"/>
<path fill-rule="evenodd" clip-rule="evenodd" d="M19.6778 22.0338C19.1995 22.31 18.5879 22.1461 18.3117 21.6678L15.3282 16.5001C15.052 16.0218 15.2159 15.4102 15.6942 15.134C16.1725 14.8579 16.7841 15.0218 17.0602 15.5001L20.0438 20.6678C20.3199 21.1461 20.1561 21.7577 19.6778 22.0338Z" fill="url(#paint5_linear_18_13549)"/>
<g filter="url(#filter2_ii_18_13549)">
<path fill-rule="evenodd" clip-rule="evenodd" d="M16.163 26.9888C22.2381 26.9888 27.163 22.064 27.163 15.9888C27.163 9.9137 22.2381 4.98883 16.163 4.98883C10.0879 4.98883 5.16299 9.9137 5.16299 15.9888C5.16299 22.064 10.0879 26.9888 16.163 26.9888ZM16.163 29.9888C23.895 29.9888 30.163 23.7208 30.163 15.9888C30.163 8.25684 23.895 1.98883 16.163 1.98883C8.43101 1.98883 2.16299 8.25684 2.16299 15.9888C2.16299 23.7208 8.43101 29.9888 16.163 29.9888Z" fill="url(#paint6_linear_18_13549)"/>
</g>
<path d="M18.183 16C18.183 17.0984 17.2926 17.9888 16.1942 17.9888C15.0958 17.9888 14.2054 17.0984 14.2054 16C14.2054 14.9016 15.0958 14.0112 16.1942 14.0112C17.2926 14.0112 18.183 14.9016 18.183 16Z" fill="url(#paint7_radial_18_13549)"/>
<path d="M18.183 16C18.183 17.0984 17.2926 17.9888 16.1942 17.9888C15.0958 17.9888 14.2054 17.0984 14.2054 16C14.2054 14.9016 15.0958 14.0112 16.1942 14.0112C17.2926 14.0112 18.183 14.9016 18.183 16Z" fill="url(#paint8_radial_18_13549)"/>
<defs>
<filter id="filter0_f_18_13549" x="11.7054" y="6.5047" width="8.97256" height="18.1633" filterUnits="userSpaceOnUse" color-interpolation-filters="sRGB">
<feFlood flood-opacity="0" result="BackgroundImageFix"/>
<feBlend mode="normal" in="SourceGraphic" in2="BackgroundImageFix" result="shape"/>
<feGaussianBlur stdDeviation="0.75" result="effect1_foregroundBlur_18_13549"/>
</filter>
<filter id="filter1_i_18_13549" x="15.1918" y="7.0047" width="2.6" height="9.99536" filterUnits="userSpaceOnUse" color-interpolation-filters="sRGB">
<feFlood flood-opacity="0" result="BackgroundImageFix"/>
<feBlend mode="normal" in="SourceGraphic" in2="BackgroundImageFix" result="shape"/>
<feColorMatrix in="SourceAlpha" type="matrix" values="0 0 0 0 0 0 0 0 0 0 0 0 0 0 0 0 0 0 127 0" result="hardAlpha"/>
<feOffset dx="0.6"/>
<feGaussianBlur stdDeviation="0.425"/>
<feComposite in2="hardAlpha" operator="arithmetic" k2="-1" k3="1"/>
<feColorMatrix type="matrix" values="0 0 0 0 0.635294 0 0 0 0 0.227451 0 0 0 0 0.403922 0 0 0 1 0"/>
<feBlend mode="normal" in2="shape" result="effect1_innerShadow_18_13549"/>
</filter>
<filter id="filter2_ii_18_13549" x="1.76299" y="1.58883" width="28.8" height="28.8" filterUnits="userSpaceOnUse" color-interpolation-filters="sRGB">
<feFlood flood-opacity="0" result="BackgroundImageFix"/>
<feBlend mode="normal" in="SourceGraphic" in2="BackgroundImageFix" result="shape"/>
<feColorMatrix in="SourceAlpha" type="matrix" values="0 0 0 0 0 0 0 0 0 0 0 0 0 0 0 0 0 0 127 0" result="hardAlpha"/>
<feOffset dx="0.4" dy="-0.4"/>
<feGaussianBlur stdDeviation="0.3"/>
<feComposite in2="hardAlpha" operator="arithmetic" k2="-1" k3="1"/>
<feColorMatrix type="matrix" values="0 0 0 0 0.282353 0 0 0 0 0.254902 0 0 0 0 0.313726 0 0 0 1 0"/>
<feBlend mode="normal" in2="shape" result="effect1_innerShadow_18_13549"/>
<feColorMatrix in="SourceAlpha" type="matrix" values="0 0 0 0 0 0 0 0 0 0 0 0 0 0 0 0 0 0 127 0" result="hardAlpha"/>
<feOffset dx="-0.4" dy="0.4"/>
<feGaussianBlur stdDeviation="0.3"/>
<feComposite in2="hardAlpha" operator="arithmetic" k2="-1" k3="1"/>
<feColorMatrix type="matrix" values="0 0 0 0 0.533333 0 0 0 0 0.533333 0 0 0 0 0.533333 0 0 0 1 0"/>
<feBlend mode="normal" in2="effect1_innerShadow_18_13549" result="effect2_innerShadow_18_13549"/>
</filter>
<radialGradient id="paint0_radial_18_13549" cx="0" cy="0" r="1" gradientUnits="userSpaceOnUse" gradientTransform="translate(9.73704 24.4871) rotate(-46.2124) scale(25.2966)">
<stop offset="0.598155" stop-color="#DDDADF"/>
<stop offset="1" stop-color="#BDBABF"/>
</radialGradient>
<linearGradient id="paint1_linear_18_13549" x1="16.1918" y1="7.0047" x2="16.1918" y2="17.0001" gradientUnits="userSpaceOnUse">
<stop stop-color="#F83F4C"/>
<stop offset="1" stop-color="#F74093"/>
</linearGradient>
<linearGradient id="paint2_linear_18_13549" x1="19.6778" y1="22.0338" x2="16.7721" y2="17.001" gradientUnits="userSpaceOnUse">
<stop stop-color="#32183D"/>
<stop offset="1" stop-color="#2C3A65"/>
</linearGradient>
<linearGradient id="paint3_linear_18_13549" x1="19.0287" y1="18.9096" x2="18.1627" y2="19.4096" gradientUnits="userSpaceOnUse">
<stop stop-color="#2E2840"/>
<stop offset="1" stop-color="#2E2840" stop-opacity="0"/>
</linearGradient>
<radialGradient id="paint4_radial_18_13549" cx="0" cy="0" r="1" gradientUnits="userSpaceOnUse" gradientTransform="translate(18.9539 21.9987) rotate(-120) scale(5.73026 0.815281)">
<stop stop-color="#50375F"/>
<stop offset="1" stop-color="#50375F" stop-opacity="0"/>
</radialGradient>
<linearGradient id="paint5_linear_18_13549" x1="19.6778" y1="22.0338" x2="19.3189" y2="21.4123" gradientUnits="userSpaceOnUse">
<stop stop-color="#3E1846"/>
<stop offset="1" stop-color="#3E1846" stop-opacity="0"/>
</linearGradient>
<linearGradient id="paint6_linear_18_13549" x1="24.6738" y1="4.00232" x2="4.44679" y2="28.5224" gradientUnits="userSpaceOnUse">
<stop stop-color="#6D6B70"/>
<stop offset="1" stop-color="#706C74"/>
</linearGradient>
<radialGradient id="paint7_radial_18_13549" cx="0" cy="0" r="1" gradientUnits="userSpaceOnUse" gradientTransform="translate(17.274 15.5415) rotate(134.039) scale(3.40442)">
<stop stop-color="#C9C6CC"/>
<stop offset="1" stop-color="#928E95"/>
</radialGradient>
<radialGradient id="paint8_radial_18_13549" cx="0" cy="0" r="1" gradientUnits="userSpaceOnUse" gradientTransform="translate(16.7567 15.4935) rotate(139.399) scale(2.88111)">
<stop offset="0.527069" stop-color="#776F7F" stop-opacity="0"/>
<stop offset="1" stop-color="#776F7F"/>
</radialGradient>
</defs>
</svg>

<svg width="32" height="32" fill="none" xmlns="http://www.w3.org/2000/svg"><path d="M30.163 15.989c0 7.732-6.268 14-14 14s-14-6.268-14-14 6.268-14 14-14 14 6.268 14 14Z" fill="url(#a)"/><g filter="url(#b)"><path d="M15.192 8.005a1 1 0 0 1 1 1v6.274a1.988 1.988 0 0 1 .728 2.71l2.124 3.679a1 1 0 1 1-1.732 1l-2.124-3.68a1.989 1.989 0 0 1-.996-3.706V9.005a1 1 0 0 1 1-1Z" fill="#C3C0C7"/></g><g filter="url(#c)"><path fill-rule="evenodd" clip-rule="evenodd" d="M16.192 7.005a1 1 0 0 1 1 1V16a1 1 0 1 1-2 0V8.005a1 1 0 0 1 1-1Z" fill="url(#d)"/></g><path fill-rule="evenodd" clip-rule="evenodd" d="M19.678 22.034a1 1 0 0 1-1.366-.366L15.328 16.5a1 1 0 1 1 1.732-1l2.984 5.168a1 1 0 0 1-.366 1.366Z" fill="url(#e)"/><path fill-rule="evenodd" clip-rule="evenodd" d="M19.678 22.034a1 1 0 0 1-1.366-.366L15.328 16.5a1 1 0 1 1 1.732-1l2.984 5.168a1 1 0 0 1-.366 1.366Z" fill="url(#f)"/><path fill-rule="evenodd" clip-rule="evenodd" d="M19.678 22.034a1 1 0 0 1-1.366-.366L15.328 16.5a1 1 0 1 1 1.732-1l2.984 5.168a1 1 0 0 1-.366 1.366Z" fill="url(#g)"/><path fill-rule="evenodd" clip-rule="evenodd" d="M19.678 22.034a1 1 0 0 1-1.366-.366L15.328 16.5a1 1 0 1 1 1.732-1l2.984 5.168a1 1 0 0 1-.366 1.366Z" fill="url(#h)"/><g filter="url(#i)"><path fill-rule="evenodd" clip-rule="evenodd" d="M16.163 26.989c6.075 0 11-4.925 11-11s-4.925-11-11-11-11 4.925-11 11 4.925 11 11 11Zm0 3c7.732 0 14-6.268 14-14s-6.268-14-14-14-14 6.268-14 14 6.268 14 14 14Z" fill="url(#j)"/></g><path d="M18.183 16a1.989 1.989 0 1 1-3.978 0 1.989 1.989 0 0 1 3.978 0Z" fill="url(#k)"/><path d="M18.183 16a1.989 1.989 0 1 1-3.978 0 1.989 1.989 0 0 1 3.978 0Z" fill="url(#l)"/><defs><linearGradient id="d" x1="16.192" y1="7.005" x2="16.192" y2="17" gradientUnits="userSpaceOnUse"><stop stop-color="#F83F4C"/><stop offset="1" stop-color="#F74093"/></linearGradient><linearGradient id="e" x1="19.678" y1="22.034" x2="16.772" y2="17.001" gradientUnits="userSpaceOnUse"><stop stop-color="#32183D"/><stop offset="1" stop-color="#2C3A65"/></linearGradient><linearGradient id="f" x1="19.029" y1="18.91" x2="18.163" y2="19.41" gradientUnits="userSpaceOnUse"><stop stop-color="#2E2840"/><stop offset="1" stop-color="#2E2840" stop-opacity="0"/></linearGradient><linearGradient id="h" x1="19.678" y1="22.034" x2="19.319" y2="21.412" gradientUnits="userSpaceOnUse"><stop stop-color="#3E1846"/><stop offset="1" stop-color="#3E1846" stop-opacity="0"/></linearGradient><linearGradient id="j" x1="24.674" y1="4.002" x2="4.447" y2="28.522" gradientUnits="userSpaceOnUse"><stop stop-color="#6D6B70"/><stop offset="1" stop-color="#706C74"/></linearGradient><radialGradient id="a" cx="0" cy="0" r="1" gradientUnits="userSpaceOnUse" gradientTransform="rotate(-46.212 33.565 .833) scale(25.2966)"><stop offset=".598" stop-color="#DDDADF"/><stop offset="1" stop-color="#BDBABF"/></radialGradient><radialGradient id="g" cx="0" cy="0" r="1" gradientUnits="userSpaceOnUse" gradientTransform="rotate(-120 15.827 5.528) scale(5.73026 .81528)"><stop stop-color="#50375F"/><stop offset="1" stop-color="#50375F" stop-opacity="0"/></radialGradient><radialGradient id="k" cx="0" cy="0" r="1" gradientUnits="userSpaceOnUse" gradientTransform="rotate(134.039 5.342 11.433) scale(3.40442)"><stop stop-color="#C9C6CC"/><stop offset="1" stop-color="#928E95"/></radialGradient><radialGradient id="l" cx="0" cy="0" r="1" gradientUnits="userSpaceOnUse" gradientTransform="rotate(139.399 5.513 10.846) scale(2.88111)"><stop offset=".527" stop-color="#776F7F" stop-opacity="0"/><stop offset="1" stop-color="#776F7F"/></radialGradient><filter id="b" x="11.705" y="6.505" width="8.973" height="18.163" filterUnits="userSpaceOnUse" color-interpolation-filters="sRGB"><feFlood flood-opacity="0" result="BackgroundImageFix"/><feBlend in="SourceGraphic" in2="BackgroundImageFix" result="shape"/><feGaussianBlur stdDeviation=".75" result="effect1_foregroundBlur_18_13549"/></filter><filter id="c" x="15.192" y="7.005" width="2.6" height="9.995" filterUnits="userSpaceOnUse" color-interpolation-filters="sRGB"><feFlood flood-opacity="0" result="BackgroundImageFix"/><feBlend in="SourceGraphic" in2="BackgroundImageFix" result="shape"/><feColorMatrix in="SourceAlpha" values="0 0 0 0 0 0 0 0 0 0 0 0 0 0 0 0 0 0 127 0" result="hardAlpha"/><feOffset dx=".6"/><feGaussianBlur stdDeviation=".425"/><feComposite in2="hardAlpha" operator="arithmetic" k2="-1" k3="1"/><feColorMatrix values="0 0 0 0 0.635294 0 0 0 0 0.227451 0 0 0 0 0.403922 0 0 0 1 0"/><feBlend in2="shape" result="effect1_innerShadow_18_13549"/></filter><filter id="i" x="1.763" y="1.589" width="28.8" height="28.8" filterUnits="userSpaceOnUse" color-interpolation-filters="sRGB"><feFlood flood-opacity="0" result="BackgroundImageFix"/><feBlend in="SourceGraphic" in2="BackgroundImageFix" result="shape"/><feColorMatrix in="SourceAlpha" values="0 0 0 0 0 0 0 0 0 0 0 0 0 0 0 0 0 0 127 0" result="hardAlpha"/><feOffset dx=".4" dy="-.4"/><feGaussianBlur stdDeviation=".3"/><feComposite in2="hardAlpha" operator="arithmetic" k2="-1" k3="1"/><feColorMatrix values="0 0 0 0 0.282353 0 0 0 0 0.254902 0 0 0 0 0.313726 0 0 0 1 0"/><feBlend in2="shape" result="effect1_innerShadow_18_13549"/><feColorMatrix in="SourceAlpha" values="0 0 0 0 0 0 0 0 0 0 0 0 0 0 0 0 0 0 127 0" result="hardAlpha"/><feOffset dx="-.4" dy=".4"/><feGaussianBlur stdDeviation=".3"/><feComposite in2="hardAlpha" operator="arithmetic" k2="-1" k3="1"/><feColorMatrix values="0 0 0 0 0.533333 0 0 0 0 0.533333 0 0 0 0 0.533333 0 0 0 1 0"/><feBlend in2="effect1_innerShadow_18_13549" result="effect2_innerShadow_18_13549"/></filter></defs></svg>
